X:1
T:Ne Derelinquas Me, LM
T:Ne Derelinquas Me, LM
T:Charles Harford Lloyd (1849-1919)
T:Public Domain Courtesy of the Cyber Hymnal™
C:Charles Harford Lloyd (1849-1919)
Z:Public Domain
Z:Courtesy of the Cyber Hymnal™
%%score ( 1 2 ) 3
L:1/8
Q:1/4=125
M:3/4
K:Eb
V:1 treble 
V:2 treble 
V:3 bass 
V:1
 [B,E]2 [B,E]2 [B,E]2 | [CG]4 [CF]2 | [B,E]4 [DF]2 | [EG]4 [EG]2 | [FB]4 [AB]2 | (B2 c2) [Fd]2 | %6
 (e2 d2) [Ec]2 | [DB]4 [FB]2 | [=Ec]4 [EG]2 | (A2 B2) [Fc]2 | [FB]4 [FA]2 | [FG]4 [=EG]2 | %12
 [FA]4 [=EG]2 | ([=EG]2 F2) [C_E]2 | [B,E]4 [B,D]2 | [B,E]6 |] %16
V:2
 x6 | x6 | x6 | x6 | x6 | G4 x2 | E4 x2 | x6 | x6 | F4 x2 | x6 | x6 | x6 | x2 F2 x2 | x6 | x6 |] %16
V:3
 [E,G,]2 [E,G,]2 [E,G,]2 | [A,,B,]4 [A,,A,]2 | [B,,G,]4 [B,,B,]2 | [E,B,]4 [E,B,]2 | %4
 [D,B,]4 [F,B,]2 | [E,B,]4 [D,B,]2 | [C,B,]4 [F,=A,]2 | [B,,B,]4 [B,D]2 | [B,C]4 [C,B,]2 | %9
 [F,A,]4 [E,A,]2 | [D,B,]4 [C,C]2 | [=B,,D]4 [C,C]2 | [F,C]4 [G,B,]2 | [A,C]4 [A,,A,]2 | %14
 [B,,F,]4 [B,,F,]2 | [E,G,]6 |] %16

